!!!!SEGMENT: pl-cz--d-ii-28--005_elsner-jozef--missa-f-op-85-benedictus.krn
!!!cenid: 18xx:177
!!!COM: Elsner, Józef
!!!COM-rismid: pe30000957
!!!CDT: 1769/06/01-1854/04/18
!!!CNT: Polish
!!!OPR: Missa F op. 85
!!!OTL: Benedictus
!!!OMV: 005
!!!PDT: 1847
!!!AGN: Sacred; Mass
!!!SMS-siglum: PL-CZ
!!!SMS-shelfmark: D II-28
!!!SMS-shelfwork: 001-005 M
!!!NIFC-rismid:
!!!URL-scan: http://repozytorium.nifc.pl/skany/pl-cz-nut--dii-28
!!!ONB-nifc: UWAGA: części Mszy: Kyrie, Gloria, Sanctus, Benedictus, Agnus Dei
!!!AIN: 1 bass 1 organ 1 tenor
!!!key:
**kern	**kern	**dynam	**kern	**text	**kern	**text
*part3	*part3	*part3	*part2	*part2	*part1	*part1
*staff4	*staff3	*	*staff2	*staff2	*staff1	*staff1
*Iorgan	*Iempty	*	*Ibass	*	*Itenor	*
*I"Organo	*	*	*I"Basso	*	*I"Tenori	*
*I'Org	*	*	*I'B	*	*I'T	*
*clefF4	*clefG2	*	*clefF4	*	*clefC4	*
*k[b-e-]	*k[b-e-]	*	*k[b-e-]	*	*k[b-e-]	*
*B-:	*B-:	*	*B-:	*	*B-:	*
*M3/4	*M3/4	*	*M3/4	*	*M3/4	*
=1	=1	=1	=1	=1	=1	=1
!	!	!	!	!	!LO:TX:a:B:t=Andantino	!
2.BBB-/ 2.BB-	4r	p	2.r	.	[4d\	Be-
!	!	!	!	!	!LO:TX:a:t=problem:triole bez numeru w t. 1	!
.	4d/ 4f	.	.	.	12d\L]	.
.	.	.	.	.	(12c\	.
.	.	.	.	.	12d\J	.
.	8e-/L 8g	.	.	.	12e-\L	.
.	.	.	.	.	12G\	-ne-
.	8c/J 8e- 8a	.	.	.	.	.
.	.	.	.	.	12A\J)	.
=2	=2	=2	=2	=2	=2	=2
4BBB-/ 4BB-	4d/ 4f 4b-	.	2.r	.	4B-\	-dic-
4AAA/ 4AA	4e-/ 4f 4cc	.	.	.	4c\	-tus
4BBB-/ 4BB-	4e-/ 4f 4cc	.	.	.	4d\	qui
=3	=3	=3	=3	=3	=3	=3
4CC/ 4C	4f/ 4a 4ee-	.	2.r	.	[4e-\	ve-
!	!	!	!	!	!LO:TX:a:t=problem:triole bez numeru i łuku w t. 3	!
4r	4r	.	.	.	12e-\L]	.
.	.	.	.	.	12d\	.
.	.	.	.	.	12c\J	.
4BBB-/ 4BB-	4f/ 4b- 4dd	.	.	.	12d\L	.
.	.	.	.	.	12f\	.
.	.	.	.	.	12d\J	.
=4	=4	=4	=4	=4	=4	=4
4FF/ 4F	4f/ 4a 4cc	.	2.r	.	2c\	-nit
4r	4r	.	.	.	.	.
4AAA/ 4AA	4f/ 4cc	.	.	.	4c\	in
=5	=5	=5	=5	=5	=5	=5
4BBB-/ 4BB-	4f/ 4dd	.	2.r	.	4.d\	no-
4r	4r	.	.	.	.	.
.	.	.	.	.	8f\	-mi-
4DD/ 4D	4f/ 4b-	.	.	.	4B-\	-ne
=6	=6	=6	=6	=6	=6	=6
4FF/ 4F	4f/ 4a	.	2.r	.	4.A\	no-
4r	4r	.	.	.	.	.
.	.	.	.	.	8c\	-mi-
4AAA/ 4AA	4f\ 4cc 4ff	.	.	.	4f\	-ne
=7	=7	=7	=7	=7	=7	=7
2.CC/ 2.C	4r	.	2.r	.	4.A\	Do-
.	4c/ 4f 4a	.	.	.	.	.
.	.	.	.	.	16d\LL	.
.	.	.	.	.	16c\JJ	.
.	4B-/ 4en 4g	.	.	.	8G\L	-mi-
.	.	.	.	.	8A\J	.
=8	=8	=8	=8	=8	=8	=8
!	!	!	!	!	!LO:TX:a:t=problem:nieprecyzyjny zapis wysokości dźwięku	!
2.FF/ 2.F	4r	.	4A\	Be-	2F/	-ni
!	!	!	!LO:TX:a:t=problem:triole bez numeru i łuku w t. 8	!	!	!
.	4A/ 4c	.	12A\L	.	.	.
.	.	.	12G\	.	.	.
.	.	.	12A\J	.	.	.
.	8B-/L 8d	.	12B-\L	.	4r	.
.	.	.	12D\	-ne-	.	.
.	8G/J 8B- 8en	.	.	.	.	.
.	.	.	12En\J	.	.	.
!!LO:LB:g=original
=9	=9	=9	=9	=9	=9	=9
4FF/ 4F	4A/ 4c 4f	.	4F\	-dic-	2.r	.
!	!LO:TX:a:t=problem:nieprecyzyjny zapis wysokości dźwięku (B-?)	!	!	!	!	!
4EEn/ 4En	4B-/ 4c 4g	.	4G\	-tus	.	.
4FF/ 4F	4A/ 4c 4a	.	4A\	qui	.	.
=10	=10	=10	=10	=10	=10	=10
4GG/ 4G	4c/ 4en 4g 4b-	.	4B-\	ve-	2.r	.
!	!	!	!LO:TX:a:t=problem:triole bez numeru i łuku w t. 10	!	!	!
4r	4r	.	12B-\L	.	.	.
.	.	.	12A\	.	.	.
.	.	.	12G\J	.	.	.
4FF/ 4F	4c/ 4f 4a	.	12A\L	.	.	.
.	.	.	12c\	.	.	.
.	.	.	12A\J	.	.	.
=11	=11	=11	=11	=11	=11	=11
4CC/ 4C	4c/ 4en 4g	.	2G\	-nit	2.r	.
4r	4r	.	.	.	.	.
4CC/ 4C	4c/ 4e 4g	.	4G\	in	.	.
=12	=12	=12	=12	=12	=12	=12
4FF/ 4F	4c/ 4f 4a	.	4.A\	no-	2.r	.
4r	4r	.	.	.	.	.
.	.	.	8c\	-mi-	.	.
4AAA/ 4AA	4c/ 4e- 4f	.	4E-X\	-ne	.	.
=13	=13	=13	=13	=13	=13	=13
4BBB-/ 4BB-	4B-/ 4d 4f	.	4.D\	no-	2.r	.
4r	4r	.	.	.	.	.
.	.	.	8F\	-mi-	.	.
4DD/ 4D	4f/ 4b-	.	4B-\	-ne	.	.
=14	=14	=14	=14	=14	=14	=14
2.FF/ 2.F	4r	.	4.D\	Do-	2.r	.
.	4f\ 4b- 4dd	.	.	.	.	.
.	.	.	16G\LL	.	.	.
.	.	.	16F\JJ	.	.	.
.	4e-\ 4a 4cc	.	8C/L	-mi-	.	.
.	.	.	8D/J	.	.	.
=15	=15	=15	=15	=15	=15	=15
!	!	!	!LO:TX:a:t=problem:nieprecyzyjny zapis wysokości dźwięku	!	!	!
2.BBB-/ 2.BB-	4d/ 4f 4b-	.	2BB-/	-ni	4r	.
.	4r	.	.	.	4d\	Be-
.	4f/ 4b- 4dd	.	4r	.	4f\	-ne-
=16	=16	=16	=16	=16	=16	=16
2.FF/ 2.F	4f/ 4a 4cc	.	4r	.	2f\	-di-
.	4r	.	4A\	Be-	.	.
.	4c/ 4e- 4a	.	4c\	-ne-	4e-\	.
!!LO:LB:g=original
=17	=17	=17	=17	=17	=17	=17
2.BBB-/ 2.BB-	4d/ 4f 4b-	.	2B-\	-di-	2d\	-ctus
.	4r	.	.	.	.	.
.	4d/ 4f 4a-X	.	4A-X\	-ctus	4r	.
=18	=18	=18	=18	=18	=18	=18
2.BBB-/ 2.BB-	4B-/ 4e- 4g	.	2G\	.	2.e-\	qui
.	4r	.	.	.	.	.
.	4c/ 4e- 4a 4cc	.	4An\	qui	.	.
=19	=19	=19	=19	=19	=19	=19
*	*^	*	*	*	*	*
2.BBB-/ 2.BB-	4.b-/ 4.dd	2f\	.	4.B-\	ve-	4.d\	ve-
.	8cc/ 8ee-	.	.	8c\	-nit	8e-\	-nit
.	4dd/ 4ff	4ryy	.	4d\	in	4f\	in
=20	=20	=20	=20	=20	=20	=20	=20
2.EE-/ 2.E-	4dd/ 4ff	4g\	.	(4.G\	no-	(4.f\	no-
.	4r	2ryy	.	.	.	.	.
.	.	.	.	8E-\)	.	8G\)	.
.	8g\L 8cc 8ee-	.	.	8G\	-mi-	8e-\	-mi-
.	8e-\J 8g 8cc	.	.	8E-\	-ne	8c\	-ne
*	*v	*v	*	*	*	*	*
=21	=21	=21	=21	=21	=21	=21
4FF/ 4F	4d/ 4f 4b-	.	2D\	Do-	2B-\	Do-
4r	4r	.	.	.	.	.
4FF/ 4F	4e-/ 4f 4a 4cc	.	4F\	-mi-	4c\	-mi-
=22	=22	=22	=22	=22	=22	=22
2.BBB-/ 2.BB-	4d/ 4f 4b- 4dd	.	4BB-/	-ni	2d\	-ni
.	4r	.	4D\	Be-	.	.
.	4f/ 4b- 4dd	.	4F\	-ne-	4r	.
=23	=23	=23	=23	=23	=23	=23
2.FF/ 2.F	4f/ 4a 4cc	.	(2F\	-dic-	4r	.
.	4r	.	.	.	4A\	Be-
.	4c/ 4e-X 4a	.	4E-X\)	.	4c\	-ne-
=24	=24	=24	=24	=24	=24	=24
[2.BBB-/ [2.BB-	4d/ 4f 4b-	.	2D\	-tus	2B-\	-dic-
.	4r	.	.	.	.	.
.	4d/ 4f 4a-X	.	4r	.	4A-X\	-tus
=25	=25	=25	=25	=25	=25	=25
2.BBB-/_ 2.BB-_	4B-/ 4e- 4g	.	2.E-\	qui	2G/	.
.	4r	.	.	.	.	.
.	4c/ 4e- 4a	.	.	.	4An\	qui
=26	=26	=26	=26	=26	=26	=26
2.BBB-/] 2.BB-]	4.d/ 4.f 4.b-	.	4.D\	ve-	4.B-\	ve-
.	8e-/ 8f 8cc	.	8E-\	-nit	8c\	-nit
.	4f/ 4b- 4dd	.	4F\	in	4d\	in
!!LO:PB:g=original
=27	=27	=27	=27	=27	=27	=27
*	*^	*	*	*	*	*
!	!	!	!	!	!	!LO:TX:a:t=problem:niejednoznaczny zapis łuku	!
2.EE-/ 2.E-	4.dd/	2g\	.	2E-\	no-	(4.d\	no-
.	8cc/	.	.	.	.	8c\)	.
.	8ee-/L	8g\L	.	8G\	-mi-	8e-\	-mi-
.	8gg/J	8b-\J	.	8E-\	-ne	8g\	-ne
*	*v	*v	*	*	*	*	*
=28	=28	=28	=28	=28	=28	=28
4FF/ 4F	4f/ 4b- 4dd	.	4.D\	Do-	4.B-\	Do-
4r	4r	.	.	.	.	.
.	.	.	8F\	.	8d\	.
4FF/ 4F	4e-/ 4a 4cc	.	8E-\L	-mi-	8c\L	-mi-
.	.	.	8F\J	.	8d\J	.
=29	=29	=29	=29	=29	=29	=29
[2.BBB-/ [2.BB-	2.d/ 2.f 2.b-	.	2D\	-ni	2B-\	-ni
.	.	.	4r	.	8d\	Be-
.	.	.	.	.	8d\	-ne-
=30	=30	=30	=30	=30	=30	=30
2.BBB-/_ 2.BB-_	2.c/ 2.e- 2.f 2.a	.	4r	.	8e-\L	-dic-
.	.	.	.	.	8c\J	.
.	.	.	4r	.	4A\	-tus
.	.	.	8A\	Be-	4e-\	qui
.	.	.	8A\	-ne-	.	.
=31	=31	=31	=31	=31	=31	=31
2.BBB-/_ 2.BB-_	2.d/ 2.f 2.b-	.	8B-\L	-dic-	4d\	ve-
.	.	.	8F\J	.	.	.
.	.	.	4D\	-tus	8d\	-nit
.	.	.	.	.	8r	.
.	.	.	4BB-/	qui	8d\	Be-
.	.	.	.	.	8d\	-ne-
=32	=32	=32	=32	=32	=32	=32
2.BBB-/_ 2.BB-_	2.c/ 2.e- 2.f 2.a	.	4C/	ve-	8e-\L	-dic-
.	.	.	.	.	8c\J	.
.	.	.	8C/	-nit	4A\	-tus
.	.	.	8r	.	.	.
.	.	.	8A\	Be-	4e-\	qui
.	.	.	8A\	-ne-	.	.
=33	=33	=33	=33	=33	=33	=33
2.BBB-/] 2.BB-]	2d/ 2f 2b-	.	8B-\L	-dic-	4d\	ve-
.	.	.	8F\J	.	.	.
.	.	.	4D\	-tus	8d\	-nit
.	.	.	.	.	8r	.
.	4f\ 4b- 4dd	.	4BB-/	in	4d\	in
!!LO:LB:g=original
=34	=34	=34	=34	=34	=34	=34
2.AA/ 2.A	2.f/ 2.b- 2.dd	.	4.A\	no-	4.d\	no-
.	.	.	8A\	-mi-	8d\	-mi-
.	.	.	4A\	-ne	4d\	-ne
=35	=35	=35	=35	=35	=35	=35
2GG\ 2G	2e-\ 2b- 2ee-	.	4.G\	no-	4.e-\	no-
.	.	.	8G\	-mi-	8e-\	-mi-
4GG-X\ 4G-X	4e-\ 4a 4cc 4ee-	.	4G-X\	-ne	4e-\	-ne
=36	=36	=36	=36	=36	=36	=36
4FF\ 4F	4f\ 4b- 4dd	.	4F\	Do-	4d\	Do-
!	!	!	!LO:TX:a:t=problem:triole bez numeru i łuku w t. 36	!	!LO:TX:a:t=problem:triole bez numeru i łuku w t. 36	!
4r	4r	.	12B-\L	.	12d\L	.
.	.	.	12c\	.	12e-\	.
.	.	.	12B-\J	.	12d\J	.
4FF\ 4F	4c/ 4e- 4a	.	12A\L	-mi-	12c\L	.
.	.	.	12F\	.	12f\	-mi-
.	.	.	12A\J	.	12e-\J	.
=37	=37	=37	=37	=37	=37	=37
2BBB-/ 2BB-	2d/ 2f 2b-	.	2B-\	-ni	2d\	-ni
4BBB-/ 4BB-	4f/ 4b- 4dd	.	4BB-/	in	4d\	in
=38	=38	=38	=38	=38	=38	=38
2.AA-X/ 2.A-X	2.f\ 2.b- 2.dd	.	4.A-X\	no-	4.d\	no-
.	.	.	8A-\	-mi-	8d\	-mi-
.	.	.	4A-\	-ne	4d\	-ne
=39	=39	=39	=39	=39	=39	=39
*	*^	*	*	*	*	*
2GG/ 2G	(2b-/ 2ee-	[2e-\	.	4.G\	no-	4.e-\	no-
.	.	.	.	8G\	-mi-	8e-\	-mi-
4GG-X/ 4G-X	4e-\]) 4a 4cc 4ee-	4ryy	.	4G-X\	-ne	4e-\	-ne
*	*v	*v	*	*	*	*	*
=40	=40	=40	=40	=40	=40	=40
4FF\ 4F	4f\ 4b- 4dd	.	4F\	Do-	4d\	Do-
!	!	!	!LO:TX:a:t=problem:triole bez numeru i łuku w t. 40	!	!LO:TX:a:t=problem:triole bez numeru i łuku w t. 40	!
4r	4r	.	12B-\L	.	12d\L	.
.	.	.	12c\	.	12e-\	.
.	.	.	12B-\J	.	12d\J	.
4FF\ 4F	4a\ 4cc 4ee-	.	12A\L	-mi-	12c\L	-mi-
.	.	.	12F\	.	12f\	.
.	.	.	12A\J	.	12e-\J	.
=41	=41	=41	=41	=41	=41	=41
4GG\ 4G	4b-\ 4dd	.	4B-\	-ni	4d\	-ni
!	!	!	!LO:TX:a:t=problem:triole bez numeru i łuku w t. 41	!	!LO:TX:a:t=problem:triole bez numeru i łuku w t. 41	!
4EE-\ 4E-	4b-\ 4ee- 4gg	.	12B-\L	Be-	12g\L	.
.	.	.	12A\	.	12f\	Be-
.	.	.	12G\J	.	12e-\J	.
4r	4r	.	12F\L	.	12d\L	.
.	.	.	12G\	.	12e-\	.
.	.	.	12E-\J	.	12c\J	.
!!LO:LB:g=original
=42	=42	=42	=42	=42	=42	=42
!	!	!	!LO:TX:a:t=problem:triole bez numeru i łuku w t. 42	!	!LO:TX:a:t=problem:triole bez numeru i łuku w t. 42	!
4FF\ 4F	4f\ 4b- 4dd	.	12D\L	.	12f\L	.
.	.	.	12C\	.	12e-\	.
.	.	.	12BB-\J	.	12d\J	.
4r	4r	.	12F\L	.	12d\L	.
.	.	.	12E-\	.	12c\	.
.	.	.	12D\J	.	12B-\J	.
4r	4r	.	12E-\L	.	12A\L	.
.	.	.	12D\	-ne	12B-\	-ne-
.	.	.	12BB-\J	.	12d\J	.
=43	=43	=43	=43	=43	=43	=43
4FF\ 4F	4e-\ 4a 4cc	.	2C/	dic-	2e-\	-dic-
4r	4r	.	.	.	.	.
4r	4r	.	8E-\L	.	8c\L	.
.	.	.	8F\J	.	8A\J	.
=44	=44	=44	=44	=44	=44	=44
!	!LO:TX:a:t=problem:triole bez numeru i łuku w t. 44-49	!	!	!	!	!
2.BB-/ 2.B-	12d/L	.	2D\	-tus	2B-\	-tus
.	12f/	.	.	.	.	.
.	12b-/J	.	.	.	.	.
.	12dd/L	.	.	.	.	.
.	12b-/	.	.	.	.	.
.	12f/J	.	.	.	.	.
.	12d/L	.	4B-\	qui	4d\	qui
.	12f/	.	.	.	.	.
.	12b-/J	.	.	.	.	.
=45	=45	=45	=45	=45	=45	=45
2.BB-/ 2.B-	12d/L	.	4.B-\	ve-	4.d\	ve-
.	12f/	.	.	.	.	.
.	12b-/J	.	.	.	.	.
.	12dd/L	.	.	.	.	.
.	12b-/	.	.	.	.	.
.	.	.	8B-\	-nit	8d\	-nit
.	12f/J	.	.	.	.	.
.	12d/L	.	4B-\	in	4d\	in
.	12f/	.	.	.	.	.
.	12b-/J	.	.	.	.	.
=46	=46	=46	=46	=46	=46	=46
2.GG/ 2.G	12d/L	.	4.B-\	no-	4.d\	no-
.	12g/	.	.	.	.	.
.	12b-/J	.	.	.	.	.
.	12dd/L	.	.	.	.	.
.	12b-/	.	.	.	.	.
.	.	.	8B-\	-mi-	8d\	-mi-
.	12g/J	.	.	.	.	.
.	12d/L	.	4B-\	-ne	4d\	-ne
.	12f/	.	.	.	.	.
.	12b-/J	.	.	.	.	.
=47	=47	=47	=47	=47	=47	=47
!LO:TX:a:t=problem:1 półnuta	!	!	!	!	!	!
2.EE-/ 2.E-	12g\L	.	2.B-\	Do-	2.c\	Do-
.	12b-\	.	.	.	.	.
.	12cc\J	.	.	.	.	.
.	12ee-\L	.	.	.	.	.
.	12cc\	.	.	.	.	.
.	12b-\J	.	.	.	.	.
.	12g\L	.	.	.	.	.
.	12b-\	.	.	.	.	.
.	12cc\J	.	.	.	.	.
=48	=48	=48	=48	=48	=48	=48
2.FF/ 2.F	(12f\L	.	2A\	.	2c\	.
.	12a\	.	.	.	.	.
.	12cc\J	.	.	.	.	.
.	12ee-\L	.	.	.	.	.
.	12cc\	.	.	.	.	.
.	12a\J	.	.	.	.	.
.	12f\L	.	4A\	-mi-	4c\	-mi-
.	12a\	.	.	.	.	.
.	12cc\J)	.	.	.	.	.
=49	=49	=49	=49	=49	=49	=49
!	!LO:TX:b:t=Ossanna Da. Capo.	!	!	!	!	!
2DD/ 2D	(12d/L	.	2B-\	-ni	2B-\	-ni
.	[12f/	.	.	.	.	.
.	[12b-/J)	.	.	.	.	.
.	4d/ 4f] 4b-]	.	.	.	.	.
4ryy	4ryy	.	4ryy	.	4ryy	.
==	==	==	==	==	==	==
*-	*-	*-	*-	*-	*-	*-
!!!system-decoration: s1,s2{(s3,s4)}
!!!ENC: Anna Matuszewska
!!!END: 2020-04-01
